svgs/sharp-regular/location-crosshairs.svg

<svg xmlns="http://www.w3.org/2000/svg" viewBox="0 0 512 512"><!--! Font Awesome Pro 6.6.0 by @fontawesome - https://fontawesome.com License - https://fontawesome.com/license (Commercial License) Copyright 2024 Fonticons, Inc. --><path d="M280 0l0 24 0 41.5C366.8 76.3 435.7 145.2 446.5 232l41.5 0 24 0 0 48-24 0-41.5 0C435.7 366.8 366.8 435.7 280 446.5l0 41.5 0 24-48 0 0-24 0-41.5C145.2 435.7 76.3 366.8 65.5 280L24 280 0 280l0-48 24 0 41.5 0C76.3 145.2 145.2 76.3 232 65.5L232 24l0-24 48 0zM112 256a144 144 0 1 0 288 0 144 144 0 1 0 -288 0zm192 0a48 48 0 1 0 -96 0 48 48 0 1 0 96 0zm-144 0a96 96 0 1 1 192 0 96 96 0 1 1 -192 0z"/></svg>

<svg xmlns="http://www.w3.org/2000/svg" viewBox="0 0 512 512"><!--! Font Awesome Pro 6.4.0 by @fontawesome - https://fontawesome.com License - https://fontawesome.com/license (Commercial License) Copyright 2023 Fonticons, Inc. --><path d="M280 0V24 65.5C366.8 76.3 435.7 145.2 446.5 232H488h24v48H488 446.5C435.7 366.8 366.8 435.7 280 446.5V488v24H232V488 446.5C145.2 435.7 76.3 366.8 65.5 280H24 0V232H24 65.5C76.3 145.2 145.2 76.3 232 65.5V24 0h48zM112 256a144 144 0 1 0 288 0 144 144 0 1 0 -288 0zm192 0a48 48 0 1 0 -96 0 48 48 0 1 0 96 0zm-144 0a96 96 0 1 1 192 0 96 96 0 1 1 -192 0z"/></svg>
